img/icons/dev_start.svg

<?xml version="1.0" encoding="UTF-8"?>
<svg width="14px" height="14px" viewBox="0 0 14 14" version="1.1" xmlns="http://www.w3.org/2000/svg" xmlns:xlink="http://www.w3.org/1999/xlink">
    <title>dev_start</title>
    <g id="Icon" stroke="none" stroke-width="1" fill="none" fill-rule="evenodd">
        <g id="Visual-Studio" transform="translate(-131.000000, -126.000000)" fill="#70D47C" fill-rule="nonzero">
            <g id="dev_start" transform="translate(131.000000, 126.000000)">
                <path d="M12.606,13.3949342 L13.998,12.0029342 L13.993,11.5429342 L6.493,4.4049342 C6.441,4.3549342 6.363,4.2789342 6.261,4.1729342 L6.487,3.9469342 L7.337,3.0979342 C7.817,2.6159342 8.639,2.3139342 9.254,2.4719342 L9.291,2.3319342 L8.09,1.1309342 C7.365,0.405934197 5.955,0.452934197 5.23,1.1769342 L4.445,1.9629342 L4.208,2.1999342 C4.098,2.0879342 4.02,2.0099342 3.975,1.9679342 L3.928,1.9229342 L3.458,1.9279342 L2.53,2.8559342 L2.525,3.3259342 L2.57,3.3729342 C2.607,3.4109342 2.684,3.4889342 2.802,3.6049342 L2.565,3.8429342 L1.715,4.6929342 L1.482,4.9259342 L1.249,4.6929342 L1.203,4.6469342 L0.971,4.4149342 L0.739,4.6469342 L0,5.3869342 L0,5.8509342 L2.564,8.4149342 L3.029,8.4149342 L3.768,7.6749342 L4,7.4449342 L3.768,7.2129342 L3.728,7.1729342 L3.495,6.9399342 L3.728,6.7079342 L4.548,5.8869342 L4.776,5.6589342 C4.886,5.7689342 4.964,5.8449342 5.007,5.8909342 L12.147,13.3909342 L12.606,13.3949342 Z" id="路径"></path>
            </g>
        </g>
    </g>
</svg>

<svg height="14" viewBox="0 0 14 14" width="14" xmlns="http://www.w3.org/2000/svg"><path d="m12.606 13.3949342 1.392-1.392-.005-.46-7.5-7.138c-.052-.05-.13-.126-.232-.232l.226-.226.85-.849c.48-.482 1.302-.784 1.917-.626l.037-.14-1.201-1.201c-.725-.725-2.135-.678-2.86.046l-.785.786-.237.237c-.11-.112-.188-.19-.233-.232l-.047-.045-.47.005-.928.928-.005.47.045.047c.037.038.114.116.232.232l-.237.238-.85.85-.233.233-.233-.233-.046-.046-.232-.232-.232.232-.739.74v.464l2.564 2.564h.465l.739-.74.232-.23-.232-.232-.04-.04-.233-.233.233-.232.82-.821.228-.228c.11.11.188.186.231.232l7.14 7.5z" fill="#70d47c"/></svg>
